lib/icons-source/calendar.svg

<svg width="23" height="23" viewBox="0 0 23 23" fill="none" xmlns="http://www.w3.org/2000/svg">
<g clip-path="url(#clip0_9_25)">
<rect width="23" height="23" fill="white"/>
<path d="M21.2031 14.9141V5.39062C21.2031 4.39989 20.397 3.59375 19.4062 3.59375H18.2383V4.49219C18.2383 4.98843 17.8361 5.39062 17.3398 5.39062C16.8436 5.39062 16.4414 4.98843 16.4414 4.49219V3.59375H12.3535V4.49219C12.3535 4.98843 11.9513 5.39062 11.4551 5.39062C10.9588 5.39062 10.5566 4.98843 10.5566 4.49219V3.59375H6.51367V4.49219C6.51367 4.98843 6.11148 5.39062 5.61523 5.39062C5.11899 5.39062 4.7168 4.98843 4.7168 4.49219V3.59375H3.59375C2.60301 3.59375 1.79688 4.39989 1.79688 5.39062V19.4062C1.79688 20.397 2.60301 21.2031 3.59375 21.2031H19.4062C20.397 21.2031 21.2031 20.397 21.2031 19.4062C21.2031 18.91 21.6053 18.5078 22.1016 18.5078C22.5978 18.5078 23 18.91 23 19.4062C23 21.3879 21.3879 23 19.4062 23H3.59375C1.6121 23 0 21.3879 0 19.4062V5.39062C0 3.40897 1.6121 1.79688 3.59375 1.79688H4.7168V0.898438C4.7168 0.402191 5.11899 0 5.61523 0C6.11148 0 6.51367 0.402191 6.51367 0.898438V1.79688H10.5566V0.898438C10.5566 0.402191 10.9588 0 11.4551 0C11.9513 0 12.3535 0.402191 12.3535 0.898438V1.79688H16.4414V0.898438C16.4414 0.402191 16.8436 0 17.3398 0C17.8361 0 18.2383 0.402191 18.2383 0.898438V1.79688H19.4062C21.3879 1.79688 23 3.40897 23 5.39062V14.9141C23 15.4103 22.5978 15.8125 22.1016 15.8125C21.6053 15.8125 21.2031 15.4103 21.2031 14.9141ZM19.5859 8.80469V14.1953C19.5859 15.1861 18.7798 15.9922 17.7891 15.9922H16.0371V17.7891C16.0371 18.7798 15.231 19.5859 14.2402 19.5859H5.25586C4.26512 19.5859 3.45898 18.7798 3.45898 17.7891V8.80469C3.45898 7.81395 4.26512 7.00781 5.25586 7.00781H17.7891C18.7798 7.00781 19.5859 7.81395 19.5859 8.80469ZM16.0371 8.80469V10.6016H17.7891V8.80469H16.0371ZM14.2402 8.80469H12.4434V10.6016H14.2402V8.80469ZM10.6465 14.1953V12.3984H8.84961V14.1953H10.6465ZM8.84961 15.9922V17.7891H10.6465V15.9922H8.84961ZM5.25586 14.1953H7.05273V12.3984H5.25586V14.1953ZM10.6465 10.6016V8.80469H8.84961V10.6016H10.6465ZM5.25586 8.80469V10.6016H7.05273V8.80469H5.25586ZM5.25586 17.7891H7.05273V15.9922H5.25586V17.7891ZM14.2402 15.9922H12.4434V17.7891H14.2402V15.9922ZM14.2402 14.1953V12.3984H12.4434V14.1953H14.2402ZM17.7891 14.1953V12.3984H16.0371V14.1953H17.7891Z" fill="black"/>
</g>
<defs>
<clipPath id="clip0_9_25">
<rect width="23" height="23" fill="white"/>
</clipPath>
</defs>
</svg>

<svg viewBox="0 0 23 23" fill="none" xmlns="http://www.w3.org/2000/svg"><rect fill="white"/><path d="M21.203 14.914V5.391c0-.991-.806-1.797-1.797-1.797h-1.168v.898a.898.898 0 1 1-1.797 0v-.898h-4.087v.898a.898.898 0 1 1-1.797 0v-.898H6.514v.898a.898.898 0 1 1-1.797 0v-.898H3.594c-.991 0-1.797.806-1.797 1.797v14.015c0 .991.806 1.797 1.797 1.797h15.812c.991 0 1.797-.806 1.797-1.797a.898.898 0 1 1 1.797 0A3.6 3.6 0 0 1 19.406 23H3.594A3.6 3.6 0 0 1 0 19.406V5.391a3.6 3.6 0 0 1 3.594-3.594h1.123V.898a.898.898 0 1 1 1.797 0v.899h4.043V.898a.898.898 0 1 1 1.797 0v.899h4.087V.898a.898.898 0 1 1 1.797 0v.899h1.168A3.6 3.6 0 0 1 23 5.39v9.523a.898.898 0 1 1-1.797 0m-1.617-6.11v5.391c0 .991-.806 1.797-1.797 1.797h-1.752v1.797a1.8 1.8 0 0 1-1.797 1.797H5.256a1.8 1.8 0 0 1-1.797-1.797V8.805c0-.991.806-1.797 1.797-1.797h12.533a1.8 1.8 0 0 1 1.797 1.797m-3.549 0v1.798h1.752V8.805zm-1.797 0h-1.797v1.798h1.797zm-3.594 5.391v-1.797H8.85v1.797zM8.85 15.992v1.797h1.797v-1.797zm-3.594-1.797h1.797v-1.797H5.256zm5.39-3.593V8.805H8.85v1.797zm-5.39-1.797v1.797h1.797V8.805zm0 8.984h1.797v-1.797H5.256zm8.984-1.797h-1.797v1.797h1.797zm0-1.797v-1.797h-1.797v1.797zm3.55 0v-1.797h-1.753v1.797z" fill="black"/></svg>
